X: 381
T:Love For Love
M:C
L:1/16
B:O'Neill's 381
N:"Slow with expression."
N:"collected by J. O'Neill"
N:The first ornament (~) is a turn, the second a mordent.
N:Bar 6 has an extra 1/32, the first 1/8 has a double dot.
Z:Transcribed by Chris Falt, cfalt@trytel.com
K:G
d2|g3dd3B ~c3de3g|dB3 ABdcA G6A2|Bd3gb3 ac3d3e|f3g ~edef d6e2|
e4 agfe dg3dB3|c7/2d/2e/2 d2c2 c4B2.c2|dB3 AG3 g4G3A|B3c BABd G6G2|
A2c2 e2db agfg e2c2|B3c AGAB .G4-.G2||
